X:312
%%etbk:tnset id:96,pos:4,rep:3x,ant:
%%etbk:tnset id:256,pos:5,rep:2x + AB,ant:
%%etbk:tnset id:258,pos:2,rep:2x+1A-Stop,ant:
%%etbk:tnset id:508,pos:3,rep:3x,ant:
%%etbk:wsite http://www.thesession.org/tunes/display/70
%%etbk:pldat 2016-06-23T18:19,2016-06-22T15:53,2016-06-21T16:24,2016-05-05T15:05,2016-05-04T15:12,2016-05-03T17:04,2016-05-02T18:45,2016-04-09T15:38,2016-04-08T18:49,2016-04-07T16:43,2016-04-05T15:22,2016-04-02T14:45,2016-03-31T16:57,2016-03-30T16:54,2016-03-10T18:37,2016-03-08T15:42,2016-03-05T13:54,2016-02-27T14:58,2016-02-23T17:15,2015-10-28T15:36,2015-10-25T14:01,2015-10-21T16:12,2015-10-13T16:29,2015-10-03T16:35,2015-06-26T17:46,2015-06-23T18:02,2015-06-18T19:03,2015-04-21T15:39,2015-03-11T16:25,2015-03-06T16:03,2015-02-10T18:10,2015-01-29T18:27,2014-11-05T18:00,2014-11-02T14:26,2014-10-29T17:15,2014-10-28T16:54,2014-10-28T15:23,2014-10-23T18:31,2014-10-10T16:20,2014-08-21T19:21,2014-08-18T19:20,2014-06-25T15:57,2014-06-23T18:13,2014-06-22T16:43,2014-06-11T16:52,2014-03-05T18:07,2014-03-01T17:22,2014-02-27T18:27,2014-02-25T17:59,2013-10-29T15:32,2013-10-26T16:58,2013-10-26T16:16,2013-10-17T18:39,2013-10-13T16:31,2013-10-09T15:18,2013-08-29T15:23
T: Merrily Kissed The Quaker
Z: Piano Box Version by Martin Fleischmann
H: Created 2013-02-19 /  Last Modified 2013-02-19
M: 12/8
L: 1/8
R: slide
K: Gmaj
!1!D |: "G"!3!GA!5!B !1!D2!4!B !5!c2!3!A !4!B!2!G!1!E | !3!GA!5!B !1!D!2!E!3!G "D"!4!AAA AGA | 
"G"!3!GA!5!B !1!D2!4!B !5!c2!3!A !4!B!2!G!1!E | !3!GA!5!B "D"!1!D2E "G"!3!G3 G3:|
!4!A |: "G"!5!B!3!GG !4!A!3!GG BGG !4!A!3!G!2!E | !3!GA!5!B !1!D!2!E!3!G "D"!4!A2A AGA | 
"G"!5!B!3!GG !4!A!3!GG BGG !4!A!3!G!2!E | !3!GA!5!B "D"!1!D2E "G"!3!G3 G3:|
!2!f |: "G"!3!g!2!g!3!g !4!aga !5!b!3!g!2!e !1!d!2!B!1!d | !3!g!1!d!3!g !3!ga!5!b "D"!4!a2a agf | 
"G"!3!g!5!bg !2!f!4!a!2!f !2!e!4!ge !1!d!3!B!2!A | !1!GA!3!B "D"!1!D2E "G"!3!G3 G3:|


